src/resources/warning/W059.svg

<svg height="600pt" viewBox="0 0 685 600" width="685pt" xmlns="http://www.w3.org/2000/svg"><g fill-rule="evenodd"><path d="m197.46208 164.743687-93.339416-161.800625-.578138-.863479-.718431-.648739-.789708-.574146-.936788-.43287-.934526-.285943-1.006934-.0734631-1.004672.0734631-1.006934.285943-.863248.43287-.863249.574146-.649416.648739-.573613.863479-93.339416 161.800625-.434452.933553-.288504.938072-.0701459 1.007016.0701459 1.004755.288504 1.007016.434452.863479.573613.863479.644891.64874.863248.574146.863248.429479 1.008066.289333 1.006934.070073h186.684489l1.006935-.070073.933394-.289333.934525-.429479.793102-.574146.718431-.64874.573613-.863479.434453-.863479.285109-1.007016.07354-1.004755-.07354-1.007016-.285109-.938072zm0 0" fill="#2b2b2c" stroke="#2b2b2c" stroke-miterlimit="2.613" stroke-width=".127844" transform="scale(3.452621 3.456221)"/><path d="m99.158139 18.114979 82.698722 143.394052h-165.398576zm0 0" fill="#f9a900" stroke="#000303" stroke-miterlimit="2.613" stroke-width=".127844" transform="scale(3.452621 3.456221)"/><path d="m492.070312 492.097656c0 19.886719-16.128906 36.035156-36.25 36.035156-19.855468 0-35.996093-16.148437-35.996093-36.035156 0-19.886718 16.140625-36.046875 35.996093-36.046875 20.121094 0 36.25 16.160157 36.25 36.046875" fill="#2b2b2c"/><path d="m471.464844 492.097656c0 8.695313-6.945313 15.660156-15.644532 15.660156-8.6875 0-15.632812-6.964843-15.632812-15.660156 0-8.707031 6.945312-15.660156 15.632812-15.660156 8.699219 0 15.644532 6.953125 15.644532 15.660156" fill="#f9a900"/><path d="m245.277344 492.097656c0 19.886719-16.144532 36.035156-35.996094 36.035156-19.867188 0-36.011719-16.148437-36.011719-36.035156 0-19.886718 16.144531-36.046875 36.011719-36.046875 19.851562 0 35.996094 16.160157 35.996094 36.046875" fill="#2b2b2c"/><path d="m224.910156 492.097656c0 8.695313-6.945312 15.660156-15.628906 15.660156-8.699219 0-15.644531-6.964843-15.644531-15.660156 0-8.707031 6.945312-15.660156 15.644531-15.660156 8.683594 0 15.628906 6.953125 15.628906 15.660156" fill="#f9a900"/><path d="m192.136719 443.875s27.570312-73.070312 84.671875-133.972656c57.101562-60.886719 116.699218-98.164063 116.699218-98.164063v271.910157h15.148438l.242188 19.128906-152.941407-.242188v-18.886718h118.671875v-39.773438zm0 0" fill="#2b2b2c"/></g></svg>

<?xml version="1.0" encoding="UTF-8" standalone="no"?>
<svg
   height="599.43457pt"
   viewBox="0 0 684.71985 599.43457"
   width="684.71985pt"
   version="1.1"
   id="svg7"
   xmlns="http://www.w3.org/2000/svg"
   xmlns:svg="http://www.w3.org/2000/svg">
  <defs
     id="defs7" />
  <g
     fill-rule="evenodd"
     id="g7"
     transform="translate(-0.00142199,-0.00113924)">
    <path
       d="M 197.46208,164.74369 104.12266,2.943062 103.54453,2.079583 102.82609,1.430844 102.03639,0.856698 101.0996,0.423828 100.16507,0.137885 99.158139,0.0644219 98.153467,0.137885 97.146533,0.423828 96.283285,0.856698 95.420036,1.430844 94.77062,2.079583 94.197007,2.943062 0.857591,164.74369 l -0.434452,0.93355 -0.288504,0.93807 -0.0701459,1.00702 0.0701459,1.00475 0.288504,1.00702 0.434452,0.86348 0.573613,0.86348 0.644891,0.64874 0.863248,0.57414 0.863248,0.42948 1.008066,0.28933 1.006934,0.0701 H 192.50208 l 1.00693,-0.0701 0.9334,-0.28933 0.93452,-0.42948 0.79311,-0.57414 0.71843,-0.64874 0.57361,-0.86348 0.43445,-0.86348 0.28511,-1.00702 0.0735,-1.00475 -0.0735,-1.00702 -0.28511,-0.93807 z m 0,0"
       fill="#2b2b2c"
       stroke="#2b2b2c"
       stroke-miterlimit="2.613"
       stroke-width="0.127844"
       transform="scale(3.452621,3.456221)"
       id="path1"
       style="fill:#2b2b2c;fill-opacity:1" />
    <path
       d="M 99.158139,18.114979 181.85686,161.50903 H 16.458285 Z m 0,0"
       fill="#f9a900"
       stroke="#2b2b2c"
       stroke-miterlimit="2.613"
       stroke-width="0.127844"
       transform="scale(3.452621,3.456221)"
       id="path2" />
    <path
       d="m 492.07031,492.09766 c 0,19.88671 -16.1289,36.03515 -36.25,36.03515 -19.85547,0 -35.99609,-16.14844 -35.99609,-36.03515 0,-19.88672 16.14062,-36.04688 35.99609,-36.04688 20.1211,0 36.25,16.16016 36.25,36.04688"
       fill="#2b2b2c"
       id="path3"
       style="fill:#2b2b2c;fill-opacity:1" />
    <path
       d="m 471.46484,492.09766 c 0,8.69531 -6.94531,15.66015 -15.64453,15.66015 -8.6875,0 -15.63281,-6.96484 -15.63281,-15.66015 0,-8.70704 6.94531,-15.66016 15.63281,-15.66016 8.69922,0 15.64453,6.95312 15.64453,15.66016"
       fill="#f9a900"
       id="path4" />
    <path
       d="m 245.27734,492.09766 c 0,19.88671 -16.14453,36.03515 -35.99609,36.03515 -19.86719,0 -36.01172,-16.14844 -36.01172,-36.03515 0,-19.88672 16.14453,-36.04688 36.01172,-36.04688 19.85156,0 35.99609,16.16016 35.99609,36.04688"
       fill="#2b2b2c"
       id="path5"
       style="fill:#2b2b2c;fill-opacity:1" />
    <path
       d="m 224.91016,492.09766 c 0,8.69531 -6.94532,15.66015 -15.62891,15.66015 -8.69922,0 -15.64453,-6.96484 -15.64453,-15.66015 0,-8.70704 6.94531,-15.66016 15.64453,-15.66016 8.68359,0 15.62891,6.95312 15.62891,15.66016"
       fill="#f9a900"
       id="path6" />
    <path
       d="m 192.13672,443.875 c 0,0 27.57031,-73.07031 84.67187,-133.97266 57.10157,-60.88672 116.69922,-98.16406 116.69922,-98.16406 v 271.91016 h 15.14844 l 0.24219,19.1289 -152.94141,-0.24218 V 483.64844 H 374.62891 V 443.875 Z m 0,0"
       fill="#2b2b2c"
       id="path7"
       style="fill:#2b2b2c;fill-opacity:1" />
  </g>
</svg>
